src/components/CallToAction/images/down-arrow.svg

<svg xmlns="http://www.w3.org/2000/svg" width="22" height="22" fill="none" viewBox="0 0 22 22"><path fill="#fff" d="M5.26965 11.9939C6.47929 13.8207 7.88733 15.5428 9.18734 17.306C9.74814 18.0667 10.4454 19.6167 11.617 19.3145C12.7624 19.0194 13.6326 16.9642 14.2339 16.0941C15.2516 14.6203 16.8221 13.0006 17.5129 11.3442C18.3593 9.31677 15.6473 9.65072 14.4225 9.66975C12.8861 9.16605 14.0188 5.27059 13.7284 4.10622C13.3921 2.75539 11.3108 2.79663 10.1757 3.07346C8.46627 3.4907 9.02548 5.64993 9.02548 7.01492C9.02548 7.76055 9.27216 8.81236 8.71614 9.35807C8.00462 10.0561 6.74896 9.46991 5.82655 9.6706C4.3464 9.99343 4.62007 11.0119 5.26971 11.9939L5.26965 11.9939Z"/></svg>

<svg fill="none" viewBox="0 0 22 22"><path fill="#fff" d="M5.27 11.994c1.21 1.827 2.617 3.549 3.917 5.312.561.76 1.258 2.31 2.43 2.008 1.145-.295 2.016-2.35 2.617-3.22 1.018-1.474 2.588-3.093 3.279-4.75.846-2.027-1.866-1.693-3.09-1.674-1.537-.504-.404-4.4-.695-5.564-.336-1.35-2.417-1.31-3.552-1.033-1.71.418-1.15 2.577-1.15 3.942 0 .746.246 1.797-.31 2.343-.711.698-1.967.112-2.89.313-1.48.322-1.206 1.34-.556 2.323z"/></svg>
